X:178
T: SCHWAENE KOMMEN GEZOGEN
N: F0313
O: Europa, Mitteleuropa, Deutschland
R: Jugend - Lied, Natur; Schwestern - Liebe
M: 6/8
L: 1/16
K: F
 | A6-A4A2 | A4BAG4A2 | c6-c4=B2 | B6z6 |
A6c4c2 | =B4f2e4d2 | c6z6 |
A6A4A2 | A4BAG4A2 | c4B2B4z2 |
A6G4F2 | A4G2F4E2 | F6z6 |
c2c2c2^c2c2c2 | d6d4
f2 | f3ed2d2c2=B2 | c6z6 |
d2e2f2f2d2B2 | A4c2c4
e2 | f6c4A2 | c6-c2C2C2 | F6z6

@@@ Tune index: 5609
